public/img/logos/websocket.svg

<svg height="800" preserveAspectRatio="xMidYMid" viewBox="0 -31.5 256 256" width="800" xmlns="http://www.w3.org/2000/svg"><path d="m192.440223 144.644612h31.779888v-76.3052736l-35.804782-35.8047822-22.472322 22.4723223 26.497216 26.4972158zm31.86374 15.93187h-46.286275-64.566001l-26.497216-26.497216 11.2361612-11.236161 21.8853588 21.885359h45.028496l-44.357681-44.441533 11.320014-11.3200132 44.35768 44.3576812v-45.0284968l-21.801506-21.8015067 11.152309-11.1523092-55.09073-55.3422863h-54.3360633-56.3485097l31.6960367 31.6960367v.0838519h.1677039 65.572224l23.2269894 23.2269899-33.9600388 33.9600393-23.2269899-23.2269899v-18.028169h-31.7798886v31.192925l55.0068785 55.0068781-22.3884704 22.388471 35.8047822 35.804782h54.336063 101.54471z" fill="#231f20"/></svg>

<?xml version="1.0" encoding="UTF-8" standalone="no"?>
<!-- Uploaded to: SVG Repo, www.svgrepo.com, Generator: SVG Repo Mixer Tools -->
<svg width="800px" height="800px" viewBox="0 -31.5 256 256" version="1.1" xmlns="http://www.w3.org/2000/svg" xmlns:xlink="http://www.w3.org/1999/xlink" preserveAspectRatio="xMidYMid">
    <g>
        <path d="M192.440223,144.644612 L224.220111,144.644612 L224.220111,68.3393384 L188.415329,32.5345562 L165.943007,55.0068785 L192.440223,81.5040943 L192.440223,144.644612 L192.440223,144.644612 Z M224.303963,160.576482 L178.017688,160.576482 L113.451687,160.576482 L86.954471,134.079266 L98.1906322,122.843105 L120.075991,144.728464 L165.104487,144.728464 L120.746806,100.286931 L132.06682,88.9669178 L176.4245,133.324599 L176.4245,88.2961022 L154.622994,66.4945955 L165.775303,55.3422863 L110.684573,0 L56.3485097,0 L56.3485097,0 L0,0 L31.6960367,31.6960367 L31.6960367,31.7798886 L31.8637406,31.7798886 L97.4359646,31.7798886 L120.662954,55.0068785 L86.7029152,88.9669178 L63.4759253,65.7399279 L63.4759253,47.7117589 L31.6960367,47.7117589 L31.6960367,78.9046839 L86.7029152,133.911562 L64.3144448,156.300033 L100.119227,192.104815 L154.45529,192.104815 L256,192.104815 L256,192.104815 L224.303963,160.576482 L224.303963,160.576482 Z" fill="#231F20">
</path>
    </g>
</svg>
